img/service__05.svg

<svg width="38" height="38" viewBox="0 0 38 38" fill="none" xmlns="http://www.w3.org/2000/svg">
<g clip-path="url(#clip0)">
<path d="M12.3203 23.0078C12.3203 23.4178 11.9881 23.75 11.5781 23.75C11.1682 23.75 10.8359 23.4178 10.8359 23.0078C10.8359 22.5979 11.1682 22.2656 11.5781 22.2656C11.9881 22.2656 12.3203 22.5979 12.3203 23.0078Z" fill="white"/>
<path d="M7.86719 37.2578C7.86719 37.6678 8.19943 38 8.60938 38H29.3906C29.8006 38 30.1328 37.6678 30.1328 37.2578V20.7812H35.3281C35.7381 20.7812 36.0703 20.449 36.0703 20.0391V12.6172C36.0703 7.45261 31.9915 3.2233 26.8863 2.98006L25.6014 0.410233C25.6003 0.407913 25.5985 0.405884 25.5974 0.403275C25.466 0.148148 25.2063 0 24.9375 0H13.0625C12.7937 0 12.534 0.148148 12.4026 0.403564C12.4015 0.405884 12.3997 0.407913 12.3986 0.410233L11.1137 2.98006C6.00853 3.2233 1.92969 7.45261 1.92969 12.6172V20.0391C1.92969 20.449 2.26193 20.7812 2.67188 20.7812H7.86719V37.2578ZM9.35156 36.5156V35.0312H28.6484V36.5156H9.35156ZM30.1328 19.2969V17.8125H34.5859V19.2969H30.1328ZM13.2075 2.11147L17.9148 7.99562L14.8962 10.0079L12.3911 3.74457L13.2075 2.11147ZM14.6066 1.48438H23.3931L19 6.97598L14.6066 1.48438ZM24.7925 2.11147L25.6089 3.74486L23.1038 10.0079L20.0852 7.99562L24.7925 2.11147ZM11.0818 4.46878L13.8577 11.4085C14.0331 11.8469 14.5677 12.0113 14.9586 11.7503L19 9.05614L23.0414 11.7503C23.4343 12.0124 23.9677 11.8451 24.1423 11.4085L26.9182 4.46878C31.1896 4.72623 34.5859 8.28206 34.5859 12.6172V16.3281H30.1328V14.1016C30.1328 13.6916 29.8006 13.3594 29.3906 13.3594C28.9807 13.3594 28.6484 13.6916 28.6484 14.1016V33.5469H9.35156V14.1016C9.35156 13.6916 9.01932 13.3594 8.60938 13.3594C8.19943 13.3594 7.86719 13.6916 7.86719 14.1016V16.3281H3.41406V12.6172C3.41406 8.28206 6.81044 4.72623 11.0818 4.46878ZM3.41406 19.2969V17.8125H7.86719V19.2969H3.41406Z" fill="white"/>
<path d="M11.5781 32.0625C11.9881 32.0625 12.3203 31.7303 12.3203 31.3203V25.9766C12.3203 25.5666 11.9881 25.2344 11.5781 25.2344C11.1682 25.2344 10.8359 25.5666 10.8359 25.9766V31.3203C10.8359 31.7303 11.1682 32.0625 11.5781 32.0625Z" fill="white"/>
<path d="M24.1953 19.2969C25.8322 19.2969 27.1641 17.965 27.1641 16.3281V14.1016C27.1641 13.6916 26.8318 13.3594 26.4219 13.3594H21.9688C21.5588 13.3594 21.2266 13.6916 21.2266 14.1016V16.3281C21.2266 17.965 22.5584 19.2969 24.1953 19.2969ZM22.7109 14.8438H25.6797V16.3281C25.6797 17.1466 25.0137 17.8125 24.1953 17.8125C23.3769 17.8125 22.7109 17.1466 22.7109 16.3281V14.8438Z" fill="white"/>
</g>
<defs>
<clipPath id="clip0">
<rect width="38" height="38" fill="white"/>
</clipPath>
</defs>
</svg>

<svg width="38" height="38" fill="none" xmlns="http://www.w3.org/2000/svg"><g clip-path="url(#clip0)" fill="#fff"><path d="M12.32 23.008a.742.742 0 11-1.484 0 .742.742 0 011.484 0z"/><path d="M7.867 37.258c0 .41.332.742.742.742h20.782c.41 0 .742-.332.742-.742V20.78h5.195c.41 0 .742-.332.742-.742v-7.422c0-5.164-4.079-9.394-9.184-9.637L25.601.41l-.004-.007a.743.743 0 00-.66-.403H13.063a.743.743 0 00-.66.404L12.4.41l-1.285 2.57c-5.105.243-9.184 4.473-9.184 9.637v7.422c0 .41.332.742.742.742h5.195v16.477zm1.485-.742V35.03h19.296v1.485H9.352zm20.78-17.22v-1.483h4.454v1.484h-4.453zM13.208 2.112l4.708 5.885-3.019 2.012-2.505-6.263.816-1.634zm1.4-.627h8.786L19 6.976l-4.393-5.492zm10.186.627l.816 1.634-2.505 6.263-3.019-2.012 4.707-5.885zM11.082 4.47l2.776 6.94a.742.742 0 001.1.341L19 9.056l4.041 2.694a.742.742 0 001.101-.341l2.776-6.94c4.272.257 7.668 3.813 7.668 8.148v3.711h-4.453v-2.226a.742.742 0 10-1.485 0v19.445H9.352V14.102a.742.742 0 10-1.485 0v2.226H3.414v-3.71c0-4.336 3.396-7.892 7.668-8.15zM3.414 19.297v-1.485h4.453v1.485H3.414z"/><path d="M11.578 32.063c.41 0 .742-.333.742-.743v-5.343a.742.742 0 10-1.484 0v5.343c0 .41.332.742.742.742zm12.617-12.766a2.972 2.972 0 002.97-2.969v-2.226a.742.742 0 00-.743-.743h-4.453a.742.742 0 00-.742.743v2.226a2.972 2.972 0 002.968 2.969zm-1.484-4.453h2.969v1.484c0 .819-.666 1.485-1.485 1.485a1.486 1.486 0 01-1.484-1.485v-1.484z"/></g><defs><clipPath id="clip0"><path fill="#fff" d="M0 0h38v38H0z"/></clipPath></defs></svg>
